src/shared/assets/image/calendar/12-december.svg

<svg width="24" height="24" viewBox="0 0 24 24" fill="none" xmlns="http://www.w3.org/2000/svg">
<g clip-path="url(#clip0_1_399)">
<path d="M19.5 2H18V0.5C18 0.224 17.776 0 17.5 0C17.224 0 17 0.224 17 0.5V2H7V0.5C7 0.224 6.776 0 6.5 0C6.224 0 6 0.224 6 0.5V2H4.5C2.019 2 0 4.019 0 6.5V19.5C0 21.981 2.019 24 4.5 24H5.5C5.776 24 6 23.776 6 23.5C6 23.224 5.776 23 5.5 23H4.5C2.57 23 1 21.43 1 19.5V9H23V13.5C23 13.776 23.224 14 23.5 14C23.776 14 24 13.776 24 13.5V6.5C24 4.019 21.981 2 19.5 2ZM1 8V6.5C1 4.57 2.57 3 4.5 3H19.5C21.43 3 23 4.57 23 6.5V8H1Z" fill="#474A55"/>
<path d="M4.54 22.64C4.42 22.64 4.32667 22.6067 4.26 22.54C4.2 22.4733 4.17 22.3767 4.17 22.25V20.72C4.17 20.4467 4.30667 20.31 4.58 20.31H5.23L4.74 20.45C5.12667 20.0233 5.41333 19.43 5.6 18.67C5.78667 17.9033 5.88 16.9367 5.88 15.77V14.4C5.88 14.2533 5.91667 14.1433 5.99 14.07C6.07 13.99 6.18333 13.95 6.33 13.95H10.11C10.25 13.95 10.36 13.99 10.44 14.07C10.52 14.1433 10.56 14.2533 10.56 14.4V20.64L10.23 20.31H11.14C11.2733 20.31 11.3767 20.3467 11.45 20.42C11.5233 20.4867 11.56 20.5867 11.56 20.72V22.25C11.56 22.51 11.4367 22.64 11.19 22.64C11.0633 22.64 10.9667 22.6067 10.9 22.54C10.84 22.4733 10.81 22.3767 10.81 22.25V21H4.91V22.25C4.91 22.51 4.78667 22.64 4.54 22.64ZM5.72 20.31H9.73V14.64H6.65V15.83C6.65 16.9033 6.57333 17.8 6.42 18.52C6.27333 19.24 6.04 19.8367 5.72 20.31ZM14.7832 21.09C14.2699 21.09 13.8265 20.99 13.4532 20.79C13.0865 20.5833 12.7999 20.2933 12.5932 19.92C12.3932 19.5467 12.2932 19.1 12.2932 18.58C12.2932 18.0733 12.3932 17.6333 12.5932 17.26C12.7932 16.88 13.0665 16.5833 13.4132 16.37C13.7665 16.1567 14.1732 16.05 14.6332 16.05C14.9599 16.05 15.2532 16.1067 15.5132 16.22C15.7732 16.3267 15.9932 16.4833 16.1732 16.69C16.3599 16.8967 16.4999 17.1467 16.5932 17.44C16.6932 17.7333 16.7432 18.0633 16.7432 18.43C16.7432 18.5367 16.7132 18.6167 16.6532 18.67C16.5932 18.7167 16.5065 18.74 16.3932 18.74H12.9132V18.21H16.2032L16.0432 18.34C16.0432 17.98 15.9899 17.6767 15.8832 17.43C15.7765 17.1767 15.6199 16.9833 15.4132 16.85C15.2132 16.7167 14.9599 16.65 14.6532 16.65C14.3132 16.65 14.0232 16.73 13.7832 16.89C13.5499 17.0433 13.3732 17.26 13.2532 17.54C13.1332 17.8133 13.0732 18.1333 13.0732 18.5V18.56C13.0732 19.1733 13.2199 19.64 13.5132 19.96C13.8132 20.28 14.2365 20.44 14.7832 20.44C15.0099 20.44 15.2332 20.41 15.4532 20.35C15.6799 20.29 15.8999 20.19 16.1132 20.05C16.2065 19.99 16.2899 19.9633 16.3632 19.97C16.4432 19.97 16.5065 19.9933 16.5532 20.04C16.5999 20.08 16.6299 20.1333 16.6432 20.2C16.6632 20.26 16.6565 20.3267 16.6232 20.4C16.5965 20.4733 16.5399 20.5367 16.4532 20.59C16.2332 20.75 15.9732 20.8733 15.6732 20.96C15.3732 21.0467 15.0765 21.09 14.7832 21.09ZM18.4131 21.07C18.2798 21.07 18.1765 21.0333 18.1031 20.96C18.0365 20.8867 18.0031 20.7833 18.0031 20.65V16.51C18.0031 16.37 18.0365 16.2667 18.1031 16.2C18.1765 16.1267 18.2798 16.09 18.4131 16.09C18.5398 16.09 18.6365 16.1267 18.7031 16.2C18.7765 16.2667 18.8131 16.37 18.8131 16.51V18.17H19.7231L21.2031 16.27C21.2698 16.19 21.3431 16.14 21.4231 16.12C21.5031 16.0933 21.5765 16.0933 21.6431 16.12C21.7165 16.14 21.7731 16.18 21.8131 16.24C21.8598 16.2933 21.8831 16.36 21.8831 16.44C21.8831 16.52 21.8531 16.6033 21.7931 16.69L20.3831 18.5L20.1531 18.24C20.3398 18.26 20.5031 18.3067 20.6431 18.38C20.7831 18.4533 20.9165 18.5633 21.0431 18.71C21.1698 18.8567 21.3065 19.06 21.4531 19.32L22.1731 20.51C22.2198 20.6033 22.2365 20.6867 22.2231 20.76C22.2165 20.8333 22.1831 20.9 22.1231 20.96C22.0631 21.0133 21.9931 21.0467 21.9131 21.06C21.8398 21.0733 21.7665 21.0633 21.6931 21.03C21.6198 20.9967 21.5531 20.9367 21.4931 20.85L20.7031 19.53C20.5898 19.3433 20.4831 19.2 20.3831 19.1C20.2831 18.9933 20.1698 18.92 20.0431 18.88C19.9165 18.84 19.7598 18.82 19.5731 18.82H18.8131V20.65C18.8131 20.7833 18.7765 20.8867 18.7031 20.96C18.6365 21.0333 18.5398 21.07 18.4131 21.07Z" fill="#474A55"/>
</g>
<defs>
<clipPath id="clip0_1_399">
<rect width="24" height="24" fill="white"/>
</clipPath>
</defs>
</svg>

<svg width="24" height="24" fill="none" xmlns="http://www.w3.org/2000/svg"><g clip-path="url(#a)" fill="#474A55"><path d="M19.5 2H18V.5a.5.5 0 0 0-1 0V2H7V.5a.5.5 0 0 0-1 0V2H4.5A4.5 4.5 0 0 0 0 6.5v13A4.5 4.5 0 0 0 4.5 24h1a.5.5 0 0 0 0-1h-1A3.5 3.5 0 0 1 1 19.5V9h22v4.5a.5.5 0 0 0 1 0v-7A4.5 4.5 0 0 0 19.5 2ZM1 8V6.5A3.5 3.5 0 0 1 4.5 3h15A3.5 3.5 0 0 1 23 6.5V8H1Z"/><path d="M4.54 22.64a.38.38 0 0 1-.28-.1c-.06-.07-.09-.16-.09-.29v-1.53c0-.27.14-.41.41-.41h.65l-.49.14c.39-.43.67-1.02.86-1.78.19-.77.28-1.73.28-2.9V14.4c0-.15.04-.26.11-.33.08-.08.2-.12.34-.12h3.78c.14 0 .25.04.33.12.08.07.12.18.12.33v6.24l-.33-.33h.91c.13 0 .24.04.31.11s.11.17.11.3v1.53c0 .26-.12.39-.37.39-.13 0-.22-.03-.29-.1-.06-.07-.09-.16-.09-.29V21h-5.9v1.25c0 .26-.12.39-.37.39Zm1.18-2.33h4.01v-5.67H6.65v1.19c0 1.07-.08 1.97-.23 2.69a4.93 4.93 0 0 1-.7 1.79Zm9.06.78c-.51 0-.95-.1-1.33-.3a2.2 2.2 0 0 1-.86-.87 2.8 2.8 0 0 1-.3-1.34c0-.5.1-.95.3-1.32.2-.38.48-.68.82-.89.36-.21.76-.32 1.22-.32.33 0 .62.06.88.17.26.1.48.26.66.47.19.2.33.46.42.75.1.3.15.62.15.99 0 .1-.03.19-.09.24a.42.42 0 0 1-.26.07h-3.48v-.53h3.3l-.17.13c0-.36-.05-.66-.16-.91-.1-.25-.26-.45-.47-.58-.2-.13-.45-.2-.76-.2a1.43 1.43 0 0 0-1.4.89c-.12.27-.18.6-.18.96v.06c0 .61.15 1.08.44 1.4.3.32.73.48 1.27.48a2.54 2.54 0 0 0 1.33-.39.4.4 0 0 1 .25-.08c.08 0 .15.02.2.07.04.04.07.1.08.16.02.06.02.13-.02.2a.38.38 0 0 1-.17.19c-.22.16-.48.28-.78.37-.3.09-.6.13-.89.13Zm3.63-.02a.42.42 0 0 1-.3-.11.44.44 0 0 1-.1-.31v-4.14c0-.14.03-.24.1-.31a.42.42 0 0 1 .3-.11c.13 0 .23.04.3.11.07.07.1.17.1.31v1.66h.91l1.48-1.9a.42.42 0 0 1 .22-.15.31.31 0 0 1 .22 0c.08.02.13.06.17.12a.3.3 0 0 1 .07.2c0 .08-.03.16-.09.25l-1.4 1.81-.24-.26c.19.02.35.07.5.14.13.07.27.18.4.33.12.15.26.35.4.61l.72 1.19c.05.1.07.18.05.25 0 .07-.04.14-.1.2a.41.41 0 0 1-.2.1.36.36 0 0 1-.23-.03.5.5 0 0 1-.2-.18l-.79-1.32a2.31 2.31 0 0 0-.32-.43.79.79 0 0 0-.34-.22 1.58 1.58 0 0 0-.47-.06h-.76v1.83c0 .13-.03.24-.1.31s-.17.11-.3.11Z"/></g><defs><clipPath id="a"><path fill="#fff" d="M0 0h24v24H0z"/></clipPath></defs></svg>
